X:119
T: Rakes of Cashel[l]
N: O'Farrell's Pocket Companion v.2 (Sky ed. p.67-8)
N: "Irish"
M: 6/8
R: jig
L: 1/8
Q: 320
K: Gm
D|: G2g gdg|gdg fdc|B2g g/a/bg|fdd cAF|
G2g gdg|gdg fdc|B2b abg|fdd cAF :|
P:2
B3 c3| d2g gab|B3 c3|d=ed cAF|
B3 c3|d2g g>fe|fdd ecc|dBB cAA|
fed cAF :|
P:3
B2G GDG|G2g gdc|B2G GDG|GBd cAF|
B2G GDG|GBd g a/g/f/e/|fdd ecc|
dBB cAA|fdf cAF :|
P:4
G2g g/a/bg|g/a/bg fdc|B2g g/a/bg|fdd cAF|
G2g g/a/bg|g/a/bg g2e|fdd ecc|dBB cAA|
fdf cAF :|
P:5
BDD cDD|dDD gab|BDD cDD|ded cAF|
BDD cDD|dDD g a/g/f/e/|fdd ecc|
dBB cAA|fed cAF :|
